X:47
T:Mike McGoldrick's
C:Mike McGoldrick
R:jig
Z:id:hn-jig-358
M:6/8
L:1/8
K:D
fef efg|fdA GFE|FAd GBd|FAd B/c/de|fef efg|fdA GFE|
FAd GBd|1 Adc d2e:|2 Adc d2c|||:~B3 BAF|~f3 fec|
~e3 fec|Ace fec|~B3 BAB|~f3 fec|1 ~e3 fec|BcA B2A:|2 ede ~f3|gfg a2g||
